dist/svgs/unicons/line/exit.svg

<svg xmlns="http://www.w3.org/2000/svg" viewBox="0 0 24 24"><path d="M4 12a1 1 0 001 1h7.59l-2.3 2.29a1 1 0 000 1.42 1 1 0 001.42 0l4-4a1 1 0 00.21-.33 1 1 0 000-.76 1 1 0 00-.21-.33l-4-4a1 1 0 10-1.42 1.42l2.3 2.29H5a1 1 0 00-1 1zM17 2H7a3 3 0 00-3 3v3a1 1 0 002 0V5a1 1 0 011-1h10a1 1 0 011 1v14a1 1 0 01-1 1H7a1 1 0 01-1-1v-3a1 1 0 00-2 0v3a3 3 0 003 3h10a3 3 0 003-3V5a3 3 0 00-3-3z"/></svg>

<svg xmlns="http://www.w3.org/2000/svg" viewBox="0 0 24 24"><path d="M4,12a1,1,0,0,0,1,1h7.59l-2.3,2.29a1,1,0,0,0,0,1.42,1,1,0,0,0,1.42,0l4-4a1,1,0,0,0,.21-.33,1,1,0,0,0,0-.76,1,1,0,0,0-.21-.33l-4-4a1,1,0,1,0-1.42,1.42L12.59,11H5A1,1,0,0,0,4,12ZM17,2H7A3,3,0,0,0,4,5V8A1,1,0,0,0,6,8V5A1,1,0,0,1,7,4H17a1,1,0,0,1,1,1V19a1,1,0,0,1-1,1H7a1,1,0,0,1-1-1V16a1,1,0,0,0-2,0v3a3,3,0,0,0,3,3H17a3,3,0,0,0,3-3V5A3,3,0,0,0,17,2Z"/></svg>
